X: 24
T: the Widow's Wish
R: jig
M: 6/8
L: 1/8
Z: 2011 John Chambers <jc:trillian.mit.edu>
B: William Randall eds "Twenty Four Country Dances", London 1771, p.14
K: Bb
|: B,BB A,cc | B,dd Cee | def ged | cdB AGF |\
   B,BB A,cc | B,dd Cee | d2e fed | cBA B3 :|
|: eca  bfd  | ecA  BFD | Egf fed | cdB AGF |\
   dBB, e2C  | fdD  E2g | f2e dcB | cBA B3 :|
% - - - - - - - - - - - - - - - - - - - - - - - - -
%%begintext align
%% Cast off Hands 4 at Bottom cast up and Hands
%% 4 at top cast off 1 Cu. turn your Partner
%% Right and Left at top
%%endtext
% - - - - - - - - - - - - - - - - - - - - - - - - -
